X:1
T: Miss Jane Young of Banff
C:William Marshall
R:Reel
Q: 232
K:A
M:4/4
L:1/8
|:e|cA af fe dc|Bc de fB bg|aA af fe dc|Bb ge a1/2a1/2a ae|
cA af fe dc|Bc de fB bg|aA af fe dc|Bb ge a1/2a1/2a ad|
cB Ac df ec|df Bf df Bf|cB Ac de fg|af ec A1/2A1/2A A2|
cB Ac df ec|df Bf df Bf|ce fg af ec|Bb ge a1/2a1/2a a:|
